pro/src/icons/full-close.svg

<svg width="48" height="48" viewBox="0 0 48 48" fill="none" xmlns="http://www.w3.org/2000/svg">
<g id="icon" fill="currentColor">
<path d="M24.826 21.0171C26.4634 22.6578 26.4614 25.3146 24.8224 26.961L24.818 26.9654L13.7 38.1682C12.6493 39.2261 10.9422 39.234 9.88698 38.186C8.83179 37.1379 8.82858 35.4303 9.87929 34.3725L20.1731 23.9986L9.83404 13.6365C8.78344 12.5838 8.78726 10.8767 9.84257 9.8234C10.8978 8.77018 12.605 8.76974 13.6556 9.82228L24.826 21.0171Z" />
<path d="M38.1199 13.6727L27.7953 23.9703L38.1584 34.2563C39.213 35.3045 39.2163 37.0114 38.1655 38.069C37.1147 39.1267 35.4072 39.134 34.3521 38.0858L23.1573 26.9727L23.1528 26.9683C21.4956 25.3257 21.4995 22.6511 23.1437 21.0037L23.1475 20.9999L23.1495 20.9979L34.316 9.86004C35.3715 8.80696 37.0787 8.80676 38.1291 9.85958C39.1795 10.9124 39.1753 12.6196 38.1199 13.6727Z" />
</g>
</svg>

<svg xmlns="http://www.w3.org/2000/svg" width="48" height="48" fill="none"><g id="icon" fill="currentColor"><path d="M24.826 21.017a4.21 4.21 0 0 1-.004 5.944l-.004.004L13.7 38.168a2.696 2.696 0 0 1-3.813.018 2.697 2.697 0 0 1-.008-3.813l10.294-10.374L9.834 13.637a2.696 2.696 0 0 1 .009-3.814 2.696 2.696 0 0 1 3.813 0z"/><path d="M38.12 13.673 27.795 23.97l10.363 10.286a2.696 2.696 0 0 1 .008 3.813 2.697 2.697 0 0 1-3.814.017L23.157 26.973l-.004-.005a4.21 4.21 0 0 1-.01-5.964l.005-.004.002-.002L34.316 9.86a2.696 2.696 0 0 1 3.813 0 2.696 2.696 0 0 1-.01 3.813"/></g></svg>
